icons/svg/shields/h_whitewater_rapid_grade1_shield.svg

<?xml version="1.0" encoding="UTF-8" standalone="no"?>
<!-- Generator: Adobe Illustrator 16.0.4, SVG Export Plug-In . SVG Version: 6.00 Build 0)  -->

<svg
   xmlns:dc="http://purl.org/dc/elements/1.1/"
   xmlns:cc="http://creativecommons.org/ns#"
   xmlns:rdf="http://www.w3.org/1999/02/22-rdf-syntax-ns#"
   xmlns:svg="http://www.w3.org/2000/svg"
   xmlns="http://www.w3.org/2000/svg"
   xmlns:sodipodi="http://sodipodi.sourceforge.net/DTD/sodipodi-0.dtd"
   xmlns:inkscape="http://www.inkscape.org/namespaces/inkscape"
   version="1.1"
   id="Слой_1"
   x="0px"
   y="0px"
   width="20"
   height="20"
   viewBox="0 0 19.999999 20"
   enable-background="new 0 0 17.113 17.143"
   xml:space="preserve"
   inkscape:version="0.91 r13725"
   sodipodi:docname="h_whitewater_rapid_grade1_shield.svg"><metadata
     id="metadata13"><rdf:RDF><cc:Work
         rdf:about=""><dc:format>image/svg+xml</dc:format><dc:type
           rdf:resource="http://purl.org/dc/dcmitype/StillImage" /><dc:title /></cc:Work></rdf:RDF></metadata><defs
     id="defs11" /><sodipodi:namedview
     pagecolor="#ffffff"
     bordercolor="#666666"
     borderopacity="1"
     objecttolerance="10"
     gridtolerance="10"
     guidetolerance="10"
     inkscape:pageopacity="0"
     inkscape:pageshadow="2"
     inkscape:window-width="1920"
     inkscape:window-height="1006"
     id="namedview9"
     showgrid="false"
     inkscape:zoom="13.766552"
     inkscape:cx="-0.59015667"
     inkscape:cy="5.7314827"
     inkscape:window-x="1920"
     inkscape:window-y="0"
     inkscape:window-maximized="1"
     inkscape:current-layer="Слой_1"
     inkscape:snap-object-midpoints="true"
     inkscape:snap-center="true" /><path
     clip-rule="evenodd"
     d="m 9.9999815,0.81196144 c 5.0668115,0 9.1884855,4.08711526 9.1884855,9.18746546 0,5.0637251 -4.121674,9.1862421 -9.1884855,9.1862421 -5.0655881,0 -9.18726277,-4.122517 -9.18726277,-9.1862421 0,-5.1003502 4.12167467,-9.18746546 9.18726277,-9.18746546 l 0,0 z"
     id="path5"
     inkscape:connector-curvature="0"
     style="fill:#83d136;fill-rule:nonzero;fill-opacity:1;opacity:1;color:#000000;stroke:none;marker:none;visibility:visible;display:inline;overflow:visible;enable-background:accumulate" /><path
     style="color:#000000;fill:#51a200;fill-opacity:1;fill-rule:evenodd;stroke:none;marker:none;visibility:visible;display:inline;overflow:visible;enable-background:accumulate;stroke-width:1;stroke-linecap:butt;stroke-linejoin:miter;stroke-miterlimit:4;stroke-opacity:1;stroke-dasharray:none;stroke-dashoffset:0"
     d="m 10.000593,-0.00118459 c -5.5326089,0 -9.99999993,4.46560619 -9.99999993,9.99999959 0,5.500611 4.46739103,10 9.99999993,10 5.533778,0 10,-4.499388 10,-10 0,-5.5343934 -4.466222,-9.99999959 -10,-9.99999959 z m 0,0.8125 c 5.066812,0 9.1875,4.08714979 9.1875,9.18749959 0,5.063725 -4.120687,9.1875 -9.1875,9.1875 -5.0655879,0 -9.18749993,-4.123775 -9.18749993,-9.1875 0,-5.1003498 4.12191203,-9.18749959 9.18749993,-9.18749959 z"
     id="path3-3"
     inkscape:connector-curvature="0" /></svg>

<svg width="20" height="20" viewBox="0 0 20 20" fill="none" xmlns="http://www.w3.org/2000/svg">
<g clip-path="url(#clip0)">
<path d="M9.99998 0.812012C15.0668 0.812012 19.1885 4.89913 19.1885 9.99948C19.1885 15.0632 15.0668 19.1857 9.99998 19.1857C4.93439 19.1857 0.812714 15.0632 0.812714 9.99948C0.812714 4.89913 4.93439 0.812012 9.99998 0.812012V0.812012Z" fill="#83D136"/>
<path fill-rule="evenodd" clip-rule="evenodd" d="M10.0006 -0.0012207C4.46799 -0.0012207 0.000595093 4.46439 0.000595093 9.99878C0.000595093 15.4994 4.46799 19.9988 10.0006 19.9988C15.5344 19.9988 20.0006 15.4994 20.0006 9.99878C20.0006 4.46439 15.5344 -0.0012207 10.0006 -0.0012207V-0.0012207ZM10.0006 0.811279C15.0674 0.811279 19.1881 4.89843 19.1881 9.99878C19.1881 15.0625 15.0674 19.1863 10.0006 19.1863C4.93501 19.1863 0.813095 15.0625 0.813095 9.99878C0.813095 4.89843 4.93501 0.811279 10.0006 0.811279V0.811279Z" fill="#51A200"/>
</g>
<defs>
<clipPath id="clip0">
<path d="M0 0H20V20H0V0Z" fill="white"/>
</clipPath>
</defs>
</svg>
